X: 29348
T: Newlyn
R: reel
M: 4/4
K: Bminor
|B2B4Bc|d2d4de|f2f2e2d2|c5cd|e2e4dc|d2B4B2|^A2F2^G2A2|B6z2:|
|:g2g4fe|f2f4ed|c2c2d2e2|f6f2|g2g4fe|f2B4B2|^A2F2^G2A2|B6z2:|

